archdroid-icon-theme/Archdroid-BlueGrey/places/scalable/folder-collection-ubuntu.svg

<?xml version="1.0" encoding="UTF-8" standalone="no"?>
<svg
   xmlns:dc="http://purl.org/dc/elements/1.1/"
   xmlns:cc="http://creativecommons.org/ns#"
   xmlns:rdf="http://www.w3.org/1999/02/22-rdf-syntax-ns#"
   xmlns:svg="http://www.w3.org/2000/svg"
   xmlns="http://www.w3.org/2000/svg"
   xmlns:sodipodi="http://sodipodi.sourceforge.net/DTD/sodipodi-0.dtd"
   xmlns:inkscape="http://www.inkscape.org/namespaces/inkscape"
   fill="#607D8B"
   width="48"
   height="48"
   viewBox="0 0 48 48"
   id="svg2"
   version="1.1"
   inkscape:version="0.91 r13725"
   sodipodi:docname="folder-ubuntu-collection.svg">
  <metadata
     id="metadata10">
    <rdf:RDF>
      <cc:Work
         rdf:about="">
        <dc:format>image/svg+xml</dc:format>
        <dc:type
           rdf:resource="http://purl.org/dc/dcmitype/StillImage" />
        <dc:title />
      </cc:Work>
    </rdf:RDF>
  </metadata>
  <defs
     id="defs8" />
  <sodipodi:namedview
     pagecolor="#ffffff"
     bordercolor="#666666"
     borderopacity="1"
     objecttolerance="10"
     gridtolerance="10"
     guidetolerance="10"
     inkscape:pageopacity="0"
     inkscape:pageshadow="2"
     inkscape:window-width="1366"
     inkscape:window-height="713"
     id="namedview6"
     showgrid="false"
     inkscape:zoom="11.02408854166667"
     inkscape:cx="21.26409399518952"
     inkscape:cy="25.75751474405789"
     inkscape:window-x="0"
     inkscape:window-y="30"
     inkscape:window-maximized="1"
     inkscape:current-layer="svg2"
     inkscape:snap-bbox="true"
     inkscape:bbox-nodes="true" />
  <path
     d="m 8,12 -4,0 0,28 c 0,2.21 1.79,4 4,4 l 28,0 0,-4 -28,0 0,-28 z"
     id="path4146" />
  <path
     d="M 16 4 C 13.79 4 12 5.790000000000001 12 8 L 12 32 C 12 34.21 13.79 36 16 36 L 40 36 C 42.21 36 44 34.21 44 32 L 44 8 C 44 5.79 42.21 4.000000000000001 40 4 L 16 4 z M 34.4375 10.00390625 C 34.80586940533924 9.9778600303868 35.18533165919512 10.0573097299873 35.529296875 10.255859375 C 36.4466388030296 10.78552780013343 36.76013717513341 11.95775942452022 36.23046875 12.875 C 35.7011043825159 13.79193651783046 34.52856870047983 14.10594165268319 33.611328125 13.576171875 C 32.69429025461985 13.04680750751593 32.38069052996618 11.87427182547977 32.91015625 10.95703125 C 33.24119901570842 10.38369254498152 33.82355099110126 10.04731661602206 34.4375 10.00390625 z M 29.6875 12.044921875 C 30.45869155125137 12.044921875 31.20540547196079 12.15153906618194 31.9140625 12.34765625 C 32.03933425152411 13.11803698085322 32.49568183700541 13.82723108832685 33.224609375 14.248046875 C 33.95262474004651 14.66845725147404 34.796260381906 14.71102310529327 35.525390625 14.435546875 C 36.94361685402643 15.82995525482881 37.86550516644621 17.72725120245299 38 19.83984375 L 35.267578125 19.87890625 C 35.01521027605576 17.01772376980177 32.61425757990379 14.7734375 29.6875 14.7734375 C 28.84414543330747 14.7734375 28.0457010524195 14.96116792858513 27.328125 15.294921875 L 25.99609375 12.908203125 C 27.1091474516485 12.35684525421437 28.36079512342201 12.044921875 29.6875 12.044921875 z M 25.064453125 13.4453125 L 26.466796875 15.79296875 C 25.02647579012228 16.80649424776771 24.083984375 18.48155909162463 24.083984375 20.376953125 C 24.083984375 22.27254986347495 25.02647579012229 23.94741200223229 26.466796875 24.9609375 L 25.064453125 27.30859375 C 23.38605490069663 26.18733049181957 22.137660269658 24.47479359117739 21.619140625 22.466796875 C 22.22502616756561 21.97310860503734 22.611328125 21.21969957639385 22.611328125 20.376953125 C 22.611328125 19.53400396850661 22.22492481501569 18.78285212251243 21.619140625 18.2890625 C 22.1377616222077 16.2812684889221 23.38605490069672 14.56627170053109 25.064453125 13.4453125 z M 19.91796875 18.458984375 C 20.97710289516732 18.458984375 21.8359375 19.31741356963363 21.8359375 20.376953125 C 21.8359375 21.43598591761749 20.9770015426175 22.294921875 19.91796875 22.294921875 C 18.85853054718339 22.29492187499999 18 21.43598591761746 18 20.376953125 C 18 19.31751492218341 18.85853054718337 18.458984375 19.91796875 18.458984375 z M 35.267578125 20.873046875 L 38 20.912109375 C 37.86601192919507 23.02470192254701 36.94351550147664 24.9219978701712 35.525390625 26.31640625 C 34.79626038190593 26.04082866715695 33.95262474004659 26.0836985786255 33.224609375 26.50390625 C 32.49558048445572 26.92502609432249 32.03933425152411 27.63391614414676 31.9140625 28.404296875 C 31.20530411941099 28.60041405881806 30.45869155125142 28.70703125 29.6875 28.70703125 C 28.36120053362119 28.70703125 27.10729567919831 28.39685829068605 25.994140625 27.845703125 L 27.328125 25.45703125 C 28.04549834732001 25.79078519641493 28.8440440807577 25.978515625 29.6875 25.978515625 C 32.6145616375531 25.978515625 35.01612244900388 23.73524288069628 35.267578125 20.873046875 z M 34.703125 26.923828125 C 35.3170660907308 26.9671701968235 35.89955267497881 27.30367776532514 36.23046875 27.876953125 C 36.76003582258359 28.79419370047978 36.44653745047983 29.96662802996615 35.529296875 30.49609375 C 34.6119549469704 31.02566082258361 33.43982467513338 30.71216245047976 32.91015625 29.794921875 C 32.38079188251587 28.87798535716955 32.6940875495203 27.70534832258361 33.611328125 27.17578125 C 33.95521732639262 26.97723160498731 34.33476034556152 26.89782288190591 34.703125 26.923828125 z "
     id="path4196" />
</svg>

<svg xmlns="http://www.w3.org/2000/svg" fill="#607D8B" viewBox="0 0 48 48"><path d="m8 12h-4v28c0 2.21 1.79 4 4 4h28v-4h-28v-28"/><path d="m16 4c-2.21 0-4 1.79-4 4v24c0 2.21 1.79 4 4 4h24c2.21 0 4-1.79 4-4v-24c0-2.21-1.79-4-4-4h-24m18.438 6c.368-.026.748.053 1.092.252.917.53 1.231 1.702.701 2.619-.529.917-1.702 1.231-2.619.701-.917-.529-1.231-1.702-.701-2.619.331-.573.913-.91 1.527-.953m-4.75 2.041c.771 0 1.518.107 2.227.303.125.77.582 1.48 1.311 1.9.728.42 1.572.463 2.301.188 1.418 1.394 2.34 3.292 2.475 5.404l-2.732.039c-.252-2.861-2.653-5.105-5.58-5.105-.843 0-1.642.188-2.359.521l-1.332-2.387c1.113-.551 2.365-.863 3.691-.863m-4.623 1.4l1.402 2.348c-1.44 1.014-2.383 2.689-2.383 4.584 0 1.896.942 3.57 2.383 4.584l-1.402 2.348c-1.678-1.121-2.927-2.834-3.445-4.842.606-.494.992-1.247.992-2.09 0-.843-.386-1.594-.992-2.088.519-2.01 1.767-3.723 3.445-4.844m-5.146 5.01c1.059 0 1.918.858 1.918 1.918 0 1.059-.859 1.918-1.918 1.918-1.059 0-1.918-.859-1.918-1.918 0-1.059.859-1.918 1.918-1.918m15.35 2.414l2.732.039c-.134 2.113-1.056 4.01-2.475 5.404-.729-.276-1.573-.233-2.301.188-.729.421-1.185 1.13-1.311 1.9-.709.196-1.455.303-2.227.303-1.326 0-2.58-.31-3.693-.861l1.334-2.389c.717.334 1.516.521 2.359.521 2.927 0 5.329-2.243 5.58-5.105m-.564 6.05c.614.043 1.196.38 1.527.953.53.917.216 2.09-.701 2.619-.917.53-2.089.216-2.619-.701-.529-.917-.216-2.09.701-2.619.344-.199.723-.278 1.092-.252"/></svg>
